X:444
T:Tell Me Dear Eveleen
N:"Moderate" "collected by F.O'Neill"
N:Irish title: innis do'm a ei.blin .dileas
B:O'Neill's 444
Z:Transcribed by henrik.norbeck@mailbox.swipnet.se
M:C
L:1/8
K:C
c2 cc B2 BB|AcBA G E2 z|A2 AA GE z E|A2 BB c2 z B|
c2 ec B2 dB|AcBA G E2 z|A2 A2 cBAG|A2 Bd c3 z||
ABcd e2 z2|f2 ed e2 A2|A2 A2 f3 e|ed2 dc2 B4|
Ae4 A3 c|BcBA G E3|A3 A cBAG|A2 Bd c4||
